apex/img/why-choose-icon-3.svg

<svg width="49" height="49" viewBox="0 0 49 49" fill="none" xmlns="http://www.w3.org/2000/svg">
<path d="M16.8116 43.2602L16.7452 43.2193L16.6696 43.2004C15.6174 42.9384 14.5288 42.8534 13.4483 42.9496C13.3826 42.9496 13.317 42.9497 13.2513 42.9497C11.0878 42.9514 8.97096 42.9531 7.47272 41.4637C5.9549 39.9549 5.99607 37.7982 6.03799 35.6015C6.0386 35.5696 6.03921 35.5376 6.03982 35.5057C6.13886 34.4231 6.0539 33.3325 5.7892 32.2782L5.77034 32.2031L5.72964 32.1372C5.19509 31.2718 4.52218 30.4983 3.73735 29.8499C2.22635 28.4228 0.5 26.7661 0.5 24.5C0.5 23.3735 0.928526 22.3902 1.55799 21.4957C2.15656 20.645 2.91453 19.9039 3.62631 19.2079C3.6646 19.1705 3.70277 19.1332 3.74077 19.096C4.52409 18.4482 5.19579 17.6757 5.72962 16.8116L5.77034 16.7457L5.78921 16.6705C6.05342 15.6179 6.13851 14.5288 6.04025 13.4479C6.04024 13.383 6.04019 13.3182 6.04014 13.2534C6.03846 11.0973 6.0368 8.97228 7.52507 7.48401C9.05913 5.94995 11.2785 5.95711 13.4944 5.99876C14.5767 6.09779 15.6675 6.01389 16.7223 5.74803L16.7972 5.72916L16.8628 5.68859C17.7275 5.15448 18.4991 4.48247 19.1478 3.69918C19.1759 3.67023 19.2041 3.64116 19.2324 3.61198C19.9113 2.91243 20.648 2.1533 21.5019 1.55299C22.3899 0.928739 23.3732 0.5 24.5 0.5C25.6265 0.5 26.6096 0.928493 27.504 1.55901C28.363 2.16459 29.1106 2.93422 29.8121 3.65636C29.8427 3.68778 29.8731 3.71911 29.9035 3.75033C30.5514 4.53395 31.3241 5.20588 32.1884 5.73979L32.2544 5.78049L32.3295 5.79935C33.3821 6.06357 34.4712 6.14866 35.5521 6.0504C35.6177 6.05039 35.6832 6.05033 35.7487 6.05028C37.9122 6.04858 40.029 6.04692 41.5273 7.53626C43.0699 9.06971 43.0532 11.2866 43.0115 13.4943C42.9124 14.5769 42.9974 15.6675 43.2621 16.7218L43.281 16.7969L43.3217 16.8628C43.8554 17.7269 44.5271 18.4994 45.3105 19.1473C45.3463 19.1822 45.3822 19.2173 45.4183 19.2526C46.1077 19.9262 46.8549 20.6562 47.448 21.5015C48.0712 22.3897 48.5 23.3731 48.5 24.5C48.5 25.6265 48.0715 26.6098 47.442 27.5043C46.8434 28.355 46.0855 29.0961 45.3737 29.7921C45.3354 29.8295 45.2972 29.8668 45.2592 29.904C44.4759 30.5518 43.8042 31.3243 43.2705 32.1884L43.2297 32.2544L43.2109 32.3295C42.9467 33.3821 42.8616 34.4711 42.9598 35.5521C42.9599 35.617 42.9599 35.6818 42.96 35.7466C42.9616 37.9027 42.9633 40.0277 41.475 41.516C39.941 43.05 37.7218 43.0429 35.5059 43.0012C34.4231 42.9012 33.3322 42.9862 32.2778 43.252L32.2029 43.2708L32.1372 43.3114C31.2726 43.8455 30.501 44.5175 29.8523 45.3008C29.8242 45.3298 29.7959 45.3589 29.7675 45.3882C29.0887 46.0877 28.352 46.8467 27.4981 47.447C26.6101 48.0713 25.6268 48.5 24.5 48.5C22.232 48.5 20.5746 46.8013 19.0982 45.2516C18.4499 44.4672 17.6766 43.7946 16.8116 43.2602ZM14.4711 39.702L14.48 39.7019L14.4889 39.7015C15.6731 39.6475 16.8563 39.8258 17.9712 40.2262C19.2888 40.8959 20.4541 41.8293 21.3959 42.9679L21.4074 42.9818L21.4198 42.9948C21.8653 43.4607 22.3949 44.0044 22.901 44.4327C23.1539 44.6467 23.4138 44.8429 23.6649 44.9881C23.9044 45.1265 24.193 45.2525 24.4898 45.2525C24.7866 45.2525 25.0751 45.1265 25.3146 44.9881C25.5657 44.843 25.8256 44.6467 26.0785 44.4327C26.5846 44.0044 27.1142 43.4608 27.5597 42.9947L27.5721 42.9818L27.5835 42.9679C28.5241 41.831 29.6872 40.8987 31.0023 40.2291C32.4484 39.7527 33.9781 39.5768 35.4954 39.7103L35.5173 39.7122H35.5393H35.5494C36.1381 39.7122 36.862 39.7123 37.4961 39.6619C37.8149 39.6367 38.1265 39.5976 38.3958 39.5346C38.6477 39.4757 38.9358 39.3804 39.1432 39.197C39.3711 38.9956 39.4821 38.6933 39.5464 38.4422C39.6158 38.1712 39.6555 37.8553 39.6789 37.5338C39.7248 36.9023 39.7126 36.1735 39.7025 35.5752L39.7019 35.5411L39.7016 35.5234L39.7001 35.5057C39.5665 33.9883 39.7425 32.4586 40.2189 31.0126C40.8884 29.6974 41.8207 28.5342 42.9577 27.5938L42.9715 27.5823L42.9845 27.5699C43.4505 27.1244 43.9942 26.5948 44.4224 26.0887C44.6364 25.8357 44.8327 25.5759 44.9778 25.3248C45.1162 25.0853 45.2423 24.7967 45.2423 24.4999C45.2423 24.2031 45.1162 23.9145 44.9778 23.675C44.8327 23.4239 44.6365 23.1641 44.4225 22.9111C43.9942 22.405 43.4505 21.8755 42.9845 21.43L42.9715 21.4176L42.9577 21.4061C41.8207 20.4657 40.8884 19.3025 40.2189 17.9873C39.7424 16.5411 39.5656 15.0115 39.7001 13.4945L39.702 13.4725V13.4504V13.4402C39.702 12.8515 39.702 12.1276 39.6517 11.4936C39.6264 11.1748 39.5873 10.8631 39.5244 10.5939C39.4655 10.342 39.3701 10.0539 39.1868 9.84645C38.9861 9.61933 38.6848 9.50744 38.4336 9.44222C38.1625 9.37186 37.8466 9.33113 37.5246 9.30703C36.8794 9.25874 36.135 9.2725 35.5267 9.28781L35.511 9.28821L35.4954 9.28958C33.9784 9.42309 32.4496 9.24628 31.0022 8.77067C29.6871 8.10116 28.5239 7.16886 27.5835 6.03198L27.5721 6.01813L27.5596 6.00513C27.1141 5.53919 26.5846 4.99552 26.0784 4.56726C25.8255 4.35323 25.5657 4.15698 25.3146 4.01186C25.0751 3.87344 24.7865 3.7474 24.4898 3.7474C24.193 3.7474 23.9044 3.87342 23.6649 4.01183C23.4138 4.15695 23.1539 4.35319 22.901 4.56721C22.3949 4.99547 21.8653 5.53914 21.4198 6.00515L21.4074 6.01813L21.3959 6.03196C20.4554 7.16887 19.2923 8.10116 17.9773 8.77066C16.5298 9.24628 15.001 9.42309 13.484 9.28958L13.4621 9.28765H13.4402H13.43C12.8413 9.28765 12.1174 9.28765 11.4833 9.33796C11.1646 9.36325 10.8529 9.40232 10.5836 9.46527C10.3318 9.52415 10.0437 9.61955 9.83621 9.80289C9.6083 10.0043 9.49731 10.3066 9.43301 10.5577C9.3636 10.8287 9.32395 11.1446 9.30055 11.4661C9.2546 12.0976 9.26685 12.8264 9.27691 13.4246L9.27748 13.4588L9.27778 13.4765L9.27934 13.4942C9.41288 15.0116 9.23697 16.5413 8.76052 17.9873C8.091 19.3025 7.15868 20.4657 6.02174 21.4061L6.00789 21.4176L5.99489 21.43C5.52895 21.8755 4.98527 22.4051 4.55701 22.9112C4.34298 23.1642 4.14674 23.424 4.00161 23.6751C3.86319 23.9146 3.73716 24.2032 3.73716 24.5C3.73716 24.7968 3.86318 25.0854 4.00159 25.3249C4.14671 25.576 4.34295 25.8358 4.55697 26.0888C4.98524 26.5949 5.52891 27.1244 5.99493 27.5699L6.00791 27.5823L6.02174 27.5938C7.15868 28.5342 8.091 29.6974 8.76052 31.0126C9.23704 32.4588 9.41378 33.9884 9.27937 35.5054L9.27741 35.5274V35.5495V35.5596C9.27741 36.1483 9.27741 36.8723 9.32772 37.5063C9.35301 37.8251 9.39208 38.1368 9.45503 38.406C9.51391 38.6579 9.60931 38.946 9.79265 39.1535C9.99405 39.3814 10.2964 39.4924 10.5474 39.5566C10.8185 39.6261 11.1343 39.6657 11.4558 39.6891C12.0874 39.7351 12.8162 39.7228 13.4144 39.7128L13.4452 39.7122L13.4486 39.7122L14.4711 39.702Z" fill="#323232" stroke="black"/>
<path d="M22.448 31.7433C21.9668 31.7444 21.4999 31.5812 21.1245 31.2816L15.9947 27.1778C15.0827 26.4473 14.9359 25.1146 15.6664 24.2025C16.3969 23.2903 17.7296 23.1437 18.6418 23.8742L22.2942 26.7982L30.1838 18.9086C31.0108 18.0816 32.3528 18.0816 33.1796 18.9086C34.0065 19.7355 34.0066 21.0775 33.1796 21.9044L23.946 31.138C23.5468 31.5299 23.0082 31.7474 22.448 31.7433Z" fill="#323232"/>
</svg>

<svg width="49" height="49" fill="none" xmlns="http://www.w3.org/2000/svg"><path d="M16.812 43.26l-.067-.04-.075-.02a9.752 9.752 0 00-3.222-.25h-.197c-2.163.001-4.28.003-5.778-1.486-1.518-1.51-1.477-3.666-1.435-5.862l.002-.096a9.643 9.643 0 00-.25-3.228l-.02-.075-.04-.066a9.32 9.32 0 00-1.993-2.287C2.227 28.423.5 26.766.5 24.5c0-1.127.429-2.11 1.058-3.004.599-.851 1.357-1.592 2.068-2.288l.115-.112a9.323 9.323 0 001.989-2.284l.04-.066.02-.075a9.647 9.647 0 00.25-3.223v-.195c-.002-2.156-.003-4.28 1.485-5.769 1.534-1.534 3.753-1.527 5.97-1.485a9.617 9.617 0 003.227-.251l.075-.019.066-.04a9.34 9.34 0 002.285-1.99l.084-.087c.68-.7 1.416-1.459 2.27-2.059C22.39.929 23.373.5 24.5.5c1.127 0 2.11.428 3.004 1.059.859.606 1.607 1.375 2.308 2.097l.091.094a9.321 9.321 0 002.285 1.99l.066.04.076.02a9.647 9.647 0 003.222.25h.197c2.163-.001 4.28-.003 5.778 1.486 1.543 1.534 1.526 3.75 1.484 5.958a9.641 9.641 0 00.251 3.228l.019.075.04.066a9.32 9.32 0 001.99 2.284l.107.106c.69.673 1.437 1.403 2.03 2.248.623.889 1.052 1.872 1.052 2.999s-.428 2.11-1.058 3.004c-.599.851-1.356 1.592-2.068 2.288l-.115.112a9.32 9.32 0 00-1.989 2.284l-.04.066-.02.076a9.649 9.649 0 00-.25 3.222v.195c.002 2.156.003 4.28-1.485 5.769-1.534 1.534-3.753 1.527-5.97 1.485a9.593 9.593 0 00-3.227.251l-.075.019-.066.04a9.341 9.341 0 00-2.285 1.99l-.085.087c-.678.7-1.415 1.459-2.269 2.059-.888.624-1.871 1.053-2.998 1.053-2.268 0-3.925-1.699-5.402-3.248a9.325 9.325 0 00-2.286-1.992zm-2.34-3.558h.017a9.08 9.08 0 013.482.524 10.788 10.788 0 013.425 2.742l.011.014.013.013c.445.466.975 1.01 1.481 1.438.253.214.513.41.764.555.24.139.528.264.825.264.297 0 .585-.126.825-.264.25-.145.51-.341.763-.555.507-.429 1.036-.972 1.482-1.438l.012-.013.012-.014a10.793 10.793 0 013.418-2.739 11.22 11.22 0 014.493-.519l.022.002h.032c.59 0 1.313 0 1.947-.05.319-.025.63-.064.9-.127.252-.06.54-.155.747-.338.228-.201.34-.504.403-.755.07-.27.11-.587.133-.908.046-.632.034-1.36.023-1.959v-.052l-.002-.017a11.218 11.218 0 01.519-4.493 10.787 10.787 0 012.739-3.42l.014-.01.012-.013c.466-.446 1.01-.975 1.438-1.481.214-.253.41-.513.556-.764.138-.24.264-.528.264-.825 0-.297-.126-.585-.264-.825a5.448 5.448 0 00-.556-.764c-.428-.506-.971-1.036-1.438-1.481l-.013-.012-.013-.012a10.787 10.787 0 01-2.74-3.419 11.2 11.2 0 01-.518-4.492l.002-.022v-.033c0-.588 0-1.312-.05-1.946a6.23 6.23 0 00-.128-.9c-.059-.252-.154-.54-.337-.748-.2-.227-.502-.339-.753-.404a5.29 5.29 0 00-.91-.135c-.645-.048-1.389-.034-1.997-.02l-.016.001-.016.002a11.238 11.238 0 01-4.493-.52 10.79 10.79 0 01-3.418-2.738l-.012-.014-.012-.013c-.446-.466-.975-1.01-1.482-1.438a5.442 5.442 0 00-.763-.555c-.24-.139-.529-.265-.825-.265-.297 0-.586.126-.825.265a5.443 5.443 0 00-.764.555c-.506.428-1.036.972-1.481 1.438l-.013.013-.011.014a10.79 10.79 0 01-3.419 2.739 11.239 11.239 0 01-4.493.519l-.022-.002h-.032c-.589 0-1.313 0-1.947.05-.318.025-.63.064-.9.127-.251.06-.54.155-.747.338-.228.201-.339.504-.403.755-.07.27-.109.587-.132.908-.046.632-.034 1.36-.024 1.959v.052l.002.017a11.218 11.218 0 01-.518 4.493 10.788 10.788 0 01-2.74 3.42l-.013.01-.013.013c-.466.445-1.01.975-1.438 1.481-.214.253-.41.513-.555.764-.139.24-.265.528-.265.825 0 .297.126.585.265.825.145.251.341.51.555.764.428.506.972 1.035 1.438 1.48l.013.013.014.012a10.782 10.782 0 012.739 3.419c.476 1.446.653 2.975.518 4.492l-.002.022v.033c0 .588 0 1.312.05 1.946.026.32.065.63.128.9.059.252.154.54.338.748.201.227.503.338.754.403.271.07.587.109.909.132.631.046 1.36.034 1.958.024h.035l1.022-.011z" fill="#323232" stroke="#000"/><path d="M22.448 31.743a2.114 2.114 0 01-1.323-.461l-5.13-4.104a2.117 2.117 0 012.647-3.304l3.652 2.924 7.89-7.89a2.119 2.119 0 012.996 2.996l-9.234 9.234c-.4.392-.938.61-1.498.605z" fill="#323232"/></svg>
